X: 39002
T: Swallowtail, The
R: jig
M: 6/8
K: Aminor
AB|:cAA eAA|cBA edc|BGG dGG|gfe dcB|
cAA eAA|cBA efg|age dcB|cAA A3:|
|:efg a3|age dBG|GBd g3|egd BAG|
efg a3|age efg|age dcB|cAA A3:|

